X: 7896
T:Swedish Mazurka
R:Mazurka
O:Sweden
M:3/4
K:D
AB AG FE| DF Ad f2|fe ea ce|1ed fd A2:|2d2d4:|
|:Bdg2g2| Ad f2f2|fe ea ce|1ed fd A2:|2d2d4:|
